images/28695.svg

<?xml version="1.0" encoding="UTF-8"?>
<svg xmlns="http://www.w3.org/2000/svg" xmlns:xlink="http://www.w3.org/1999/xlink" width="300pt" height="300pt" viewBox="0 0 300 300" version="1.1">
<defs>
<g>
<symbol overflow="visible" id="glyph0-0">
<path style="stroke:none;" d="M 0.546875 1.9375 L 0.546875 -7.75 L 6.046875 -7.75 L 6.046875 1.9375 Z M 1.171875 1.328125 L 5.4375 1.328125 L 5.4375 -7.140625 L 1.171875 -7.140625 Z M 1.171875 1.328125 "/>
</symbol>
<symbol overflow="visible" id="glyph0-1">
<path style="stroke:none;" d="M 1.078125 -8.015625 L 5.6875 -8.015625 L 5.6875 -7.109375 L 2.171875 -7.109375 L 2.171875 -4.75 L 5.34375 -4.75 L 5.34375 -3.828125 L 2.171875 -3.828125 L 2.171875 0 L 1.078125 0 Z M 1.078125 -8.015625 "/>
</symbol>
<symbol overflow="visible" id="glyph0-2">
<path style="stroke:none;" d="M 1.078125 -8.015625 L 2.546875 -8.015625 L 6.09375 -1.3125 L 6.09375 -8.015625 L 7.15625 -8.015625 L 7.15625 0 L 5.6875 0 L 2.125 -6.703125 L 2.125 0 L 1.078125 0 Z M 1.078125 -8.015625 "/>
</symbol>
<symbol overflow="visible" id="glyph0-3">
<path style="stroke:none;" d="M 1.078125 -8.015625 L 2.171875 -8.015625 L 2.171875 -4.734375 L 6.109375 -4.734375 L 6.109375 -8.015625 L 7.1875 -8.015625 L 7.1875 0 L 6.109375 0 L 6.109375 -3.8125 L 2.171875 -3.8125 L 2.171875 0 L 1.078125 0 Z M 1.078125 -8.015625 "/>
</symbol>
<symbol overflow="visible" id="glyph0-4">
<path style="stroke:none;" d="M 4.328125 -7.28125 C 3.546875 -7.28125 2.921875 -6.984375 2.453125 -6.390625 C 1.992188 -5.804688 1.765625 -5.007812 1.765625 -4 C 1.765625 -2.988281 1.992188 -2.1875 2.453125 -1.59375 C 2.921875 -1.007812 3.546875 -0.71875 4.328125 -0.71875 C 5.117188 -0.71875 5.742188 -1.007812 6.203125 -1.59375 C 6.660156 -2.1875 6.890625 -2.988281 6.890625 -4 C 6.890625 -5.007812 6.660156 -5.804688 6.203125 -6.390625 C 5.742188 -6.984375 5.117188 -7.28125 4.328125 -7.28125 Z M 4.328125 -8.171875 C 5.453125 -8.171875 6.351562 -7.789062 7.03125 -7.03125 C 7.707031 -6.28125 8.046875 -5.269531 8.046875 -4 C 8.046875 -2.738281 7.707031 -1.726562 7.03125 -0.96875 C 6.351562 -0.21875 5.453125 0.15625 4.328125 0.15625 C 3.203125 0.15625 2.300781 -0.21875 1.625 -0.96875 C 0.957031 -1.71875 0.625 -2.726562 0.625 -4 C 0.625 -5.269531 0.957031 -6.28125 1.625 -7.03125 C 2.300781 -7.789062 3.203125 -8.171875 4.328125 -8.171875 Z M 4.328125 -8.171875 "/>
</symbol>
</g>
</defs>
<g id="surface13889">
<rect x="0" y="0" width="300" height="300" style="fill:rgb(100%,100%,100%);fill-opacity:1;stroke:none;"/>
<path style="fill:none;stroke-width:1.2;stroke-linecap:butt;stroke-linejoin:miter;stroke:rgb(20%,80%,80%);stroke-opacity:1;stroke-miterlimit:10;" d="M 264.75 236.199219 L 257.398438 224.605469 "/>
<path style="fill:none;stroke-width:1.2;stroke-linecap:butt;stroke-linejoin:miter;stroke:rgb(0%,0%,0%);stroke-opacity:1;stroke-miterlimit:10;" d="M 257.398438 224.605469 L 250.046875 213.015625 "/>
<path style=" stroke:none;fill-rule:nonzero;fill:rgb(100%,100%,100%);fill-opacity:1;" d="M 261.75 229.699219 L 268.75 229.699219 L 268.75 242.699219 L 261.75 242.699219 Z M 261.75 229.699219 "/>
<g style="fill:rgb(20%,80%,80%);fill-opacity:1;">
  <use xlink:href="#glyph0-1" x="261.75" y="239.600586"/>
</g>
<path style="fill:none;stroke-width:1.2;stroke-linecap:butt;stroke-linejoin:miter;stroke:rgb(0%,0%,0%);stroke-opacity:1;stroke-miterlimit:10;" d="M 250.046875 213.015625 L 222.617188 214.15625 "/>
<path style="fill:none;stroke-width:1.2;stroke-linecap:butt;stroke-linejoin:miter;stroke:rgb(0%,0%,0%);stroke-opacity:1;stroke-miterlimit:10;" d="M 247.035156 206.675781 L 225.089844 207.585938 "/>
<path style="fill:none;stroke-width:1.2;stroke-linecap:butt;stroke-linejoin:miter;stroke:rgb(0%,0%,0%);stroke-opacity:1;stroke-miterlimit:10;" d="M 262.773438 188.6875 L 250.046875 213.015625 "/>
<path style="fill:none;stroke-width:1.2;stroke-linecap:butt;stroke-linejoin:miter;stroke:rgb(0%,0%,0%);stroke-opacity:1;stroke-miterlimit:10;" d="M 222.617188 214.15625 L 207.910156 190.972656 "/>
<path style="fill:none;stroke-width:1.2;stroke-linecap:butt;stroke-linejoin:miter;stroke:rgb(0%,0%,0%);stroke-opacity:1;stroke-miterlimit:10;" d="M 207.910156 190.972656 L 220.636719 166.644531 "/>
<path style="fill:none;stroke-width:1.2;stroke-linecap:butt;stroke-linejoin:miter;stroke:rgb(0%,0%,0%);stroke-opacity:1;stroke-miterlimit:10;" d="M 214.90625 191.535156 L 225.089844 172.074219 "/>
<path style="fill:none;stroke-width:1.2;stroke-linecap:butt;stroke-linejoin:miter;stroke:rgb(0%,0%,0%);stroke-opacity:1;stroke-miterlimit:10;" d="M 220.636719 166.644531 L 248.066406 165.503906 "/>
<path style="fill:none;stroke-width:1.2;stroke-linecap:butt;stroke-linejoin:miter;stroke:rgb(0%,0%,0%);stroke-opacity:1;stroke-miterlimit:10;" d="M 220.636719 166.644531 L 205.933594 143.460938 "/>
<path style="fill:none;stroke-width:1.2;stroke-linecap:butt;stroke-linejoin:miter;stroke:rgb(0%,0%,0%);stroke-opacity:1;stroke-miterlimit:10;" d="M 248.066406 165.503906 L 262.773438 188.6875 "/>
<path style="fill:none;stroke-width:1.2;stroke-linecap:butt;stroke-linejoin:miter;stroke:rgb(0%,0%,0%);stroke-opacity:1;stroke-miterlimit:10;" d="M 244.082031 171.28125 L 255.847656 189.828125 "/>
<path style="fill:none;stroke-width:1.2;stroke-linecap:butt;stroke-linejoin:miter;stroke:rgb(0%,0%,0%);stroke-opacity:1;stroke-miterlimit:10;" d="M 205.933594 143.460938 L 216.046875 117.9375 "/>
<path style="fill:none;stroke-width:1.2;stroke-linecap:butt;stroke-linejoin:miter;stroke:rgb(0%,0%,0%);stroke-opacity:1;stroke-miterlimit:10;" d="M 178.535156 141.730469 L 205.933594 143.460938 "/>
<path style="fill:none;stroke-width:1.2;stroke-linecap:butt;stroke-linejoin:miter;stroke:rgb(0%,0%,0%);stroke-opacity:1;stroke-miterlimit:10;" d="M 181.683594 135.457031 L 203.601562 136.839844 "/>
<path style="fill:none;stroke-width:1.2;stroke-linecap:butt;stroke-linejoin:miter;stroke:rgb(0%,0%,0%);stroke-opacity:1;stroke-miterlimit:10;" d="M 216.046875 117.9375 L 228.914062 113.15625 "/>
<path style="fill:none;stroke-width:1.2;stroke-linecap:butt;stroke-linejoin:miter;stroke:rgb(0%,0%,100%);stroke-opacity:1;stroke-miterlimit:10;" d="M 228.914062 113.15625 L 241.78125 108.375 "/>
<path style="fill:none;stroke-width:1.2;stroke-linecap:butt;stroke-linejoin:miter;stroke:rgb(0%,0%,0%);stroke-opacity:1;stroke-miterlimit:10;" d="M 216.371094 110.925781 L 226.664062 107.101562 "/>
<path style="fill:none;stroke-width:1.2;stroke-linecap:butt;stroke-linejoin:miter;stroke:rgb(0%,0%,100%);stroke-opacity:1;stroke-miterlimit:10;" d="M 226.664062 107.101562 L 236.960938 103.277344 "/>
<path style="fill:none;stroke-width:1.2;stroke-linecap:butt;stroke-linejoin:miter;stroke:rgb(0%,0%,0%);stroke-opacity:1;stroke-miterlimit:10;" d="M 194.898438 100.433594 L 216.046875 117.9375 "/>
<path style="fill:none;stroke-width:1.2;stroke-linecap:butt;stroke-linejoin:miter;stroke:rgb(0%,0%,100%);stroke-opacity:1;stroke-miterlimit:10;" d="M 241.78125 108.375 L 244.074219 94.839844 "/>
<path style="fill:none;stroke-width:1.2;stroke-linecap:butt;stroke-linejoin:miter;stroke:rgb(0%,0%,0%);stroke-opacity:1;stroke-miterlimit:10;" d="M 244.074219 94.839844 L 246.367188 81.308594 "/>
<path style=" stroke:none;fill-rule:nonzero;fill:rgb(100%,100%,100%);fill-opacity:1;" d="M 237.78125 101.875 L 245.78125 101.875 L 245.78125 114.875 L 237.78125 114.875 Z M 237.78125 101.875 "/>
<g style="fill:rgb(0%,0%,100%);fill-opacity:1;">
  <use xlink:href="#glyph0-2" x="237.78125" y="111.776367"/>
</g>
<path style="fill:none;stroke-width:1.2;stroke-linecap:butt;stroke-linejoin:miter;stroke:rgb(0%,0%,0%);stroke-opacity:1;stroke-miterlimit:10;" d="M 246.367188 81.308594 L 225.21875 63.800781 "/>
<path style="fill:none;stroke-width:1.2;stroke-linecap:butt;stroke-linejoin:miter;stroke:rgb(0%,0%,0%);stroke-opacity:1;stroke-miterlimit:10;" d="M 240.136719 84.53125 L 223.214844 70.527344 "/>
<path style="fill:none;stroke-width:1.2;stroke-linecap:butt;stroke-linejoin:miter;stroke:rgb(0%,0%,0%);stroke-opacity:1;stroke-miterlimit:10;" d="M 225.21875 63.800781 L 199.484375 73.363281 "/>
<path style="fill:none;stroke-width:1.2;stroke-linecap:butt;stroke-linejoin:miter;stroke:rgb(0%,0%,0%);stroke-opacity:1;stroke-miterlimit:10;" d="M 199.484375 73.363281 L 194.898438 100.433594 "/>
<path style="fill:none;stroke-width:1.2;stroke-linecap:butt;stroke-linejoin:miter;stroke:rgb(0%,0%,0%);stroke-opacity:1;stroke-miterlimit:10;" d="M 205.394531 77.148438 L 201.726562 98.804688 "/>
<path style="fill:none;stroke-width:1.2;stroke-linecap:butt;stroke-linejoin:miter;stroke:rgb(0%,0%,0%);stroke-opacity:1;stroke-miterlimit:10;" d="M 194.898438 100.433594 L 183.308594 107.785156 "/>
<path style="fill:none;stroke-width:1.2;stroke-linecap:butt;stroke-linejoin:miter;stroke:rgb(0%,0%,100%);stroke-opacity:1;stroke-miterlimit:10;" d="M 183.308594 107.785156 L 171.714844 115.136719 "/>
<path style="fill:none;stroke-width:1.2;stroke-linecap:butt;stroke-linejoin:miter;stroke:rgb(0%,0%,100%);stroke-opacity:1;stroke-miterlimit:10;" d="M 171.714844 115.136719 L 175.125 128.433594 "/>
<path style="fill:none;stroke-width:1.2;stroke-linecap:butt;stroke-linejoin:miter;stroke:rgb(0%,0%,0%);stroke-opacity:1;stroke-miterlimit:10;" d="M 175.125 128.433594 L 178.535156 141.730469 "/>
<path style=" stroke:none;fill-rule:nonzero;fill:rgb(100%,100%,100%);fill-opacity:1;" d="M 163.714844 108.636719 L 180.714844 108.636719 L 180.714844 121.636719 L 163.714844 121.636719 Z M 163.714844 108.636719 "/>
<g style="fill:rgb(0%,0%,100%);fill-opacity:1;">
  <use xlink:href="#glyph0-2" x="163.714844" y="118.538086"/>
  <use xlink:href="#glyph0-3" x="171.698242" y="118.538086"/>
</g>
<path style="fill:none;stroke-width:1.2;stroke-linecap:butt;stroke-linejoin:miter;stroke:rgb(0%,0%,0%);stroke-opacity:1;stroke-miterlimit:10;" d="M 178.535156 141.730469 L 161.027344 162.878906 "/>
<path style="fill:none;stroke-width:1.2;stroke-linecap:butt;stroke-linejoin:miter;stroke:rgb(0%,0%,0%);stroke-opacity:1;stroke-miterlimit:10;" d="M 161.027344 162.878906 L 133.960938 158.292969 "/>
<path style="fill:none;stroke-width:1.2;stroke-linecap:butt;stroke-linejoin:miter;stroke:rgb(0%,0%,0%);stroke-opacity:1;stroke-miterlimit:10;" d="M 157.242188 168.789062 L 135.589844 165.121094 "/>
<path style="fill:none;stroke-width:1.2;stroke-linecap:butt;stroke-linejoin:miter;stroke:rgb(0%,0%,0%);stroke-opacity:1;stroke-miterlimit:10;" d="M 170.589844 188.613281 L 161.027344 162.878906 "/>
<path style="fill:none;stroke-width:1.2;stroke-linecap:butt;stroke-linejoin:miter;stroke:rgb(0%,0%,0%);stroke-opacity:1;stroke-miterlimit:10;" d="M 133.960938 158.292969 L 116.453125 179.441406 "/>
<path style="fill:none;stroke-width:1.2;stroke-linecap:butt;stroke-linejoin:miter;stroke:rgb(0%,0%,0%);stroke-opacity:1;stroke-miterlimit:10;" d="M 116.453125 179.441406 L 121.234375 192.308594 "/>
<path style="fill:none;stroke-width:1.2;stroke-linecap:butt;stroke-linejoin:miter;stroke:rgb(0%,0%,100%);stroke-opacity:1;stroke-miterlimit:10;" d="M 121.234375 192.308594 L 126.015625 205.175781 "/>
<path style="fill:none;stroke-width:1.2;stroke-linecap:butt;stroke-linejoin:miter;stroke:rgb(0%,0%,0%);stroke-opacity:1;stroke-miterlimit:10;" d="M 123.464844 179.765625 L 127.292969 190.058594 "/>
<path style="fill:none;stroke-width:1.2;stroke-linecap:butt;stroke-linejoin:miter;stroke:rgb(0%,0%,100%);stroke-opacity:1;stroke-miterlimit:10;" d="M 127.292969 190.058594 L 131.117188 200.351562 "/>
<path style="fill:none;stroke-width:1.2;stroke-linecap:butt;stroke-linejoin:miter;stroke:rgb(0%,0%,0%);stroke-opacity:1;stroke-miterlimit:10;" d="M 116.453125 179.441406 L 102.921875 177.148438 "/>
<path style="fill:none;stroke-width:1.2;stroke-linecap:butt;stroke-linejoin:miter;stroke:rgb(0%,0%,100%);stroke-opacity:1;stroke-miterlimit:10;" d="M 102.921875 177.148438 L 89.386719 174.855469 "/>
<path style="fill:none;stroke-width:1.2;stroke-linecap:butt;stroke-linejoin:miter;stroke:rgb(0%,0%,100%);stroke-opacity:1;stroke-miterlimit:10;" d="M 126.015625 205.175781 L 139.550781 207.46875 "/>
<path style="fill:none;stroke-width:1.2;stroke-linecap:butt;stroke-linejoin:miter;stroke:rgb(0%,0%,0%);stroke-opacity:1;stroke-miterlimit:10;" d="M 139.550781 207.46875 L 153.085938 209.761719 "/>
<path style=" stroke:none;fill-rule:nonzero;fill:rgb(100%,100%,100%);fill-opacity:1;" d="M 122.015625 198.675781 L 130.015625 198.675781 L 130.015625 211.675781 L 122.015625 211.675781 Z M 122.015625 198.675781 "/>
<g style="fill:rgb(0%,0%,100%);fill-opacity:1;">
  <use xlink:href="#glyph0-2" x="122.015625" y="208.577148"/>
</g>
<path style="fill:none;stroke-width:1.2;stroke-linecap:butt;stroke-linejoin:miter;stroke:rgb(0%,0%,0%);stroke-opacity:1;stroke-miterlimit:10;" d="M 153.085938 209.761719 L 170.589844 188.613281 "/>
<path style="fill:none;stroke-width:1.2;stroke-linecap:butt;stroke-linejoin:miter;stroke:rgb(0%,0%,0%);stroke-opacity:1;stroke-miterlimit:10;" d="M 149.859375 203.527344 L 163.863281 186.609375 "/>
<path style="fill:none;stroke-width:1.2;stroke-linecap:butt;stroke-linejoin:miter;stroke:rgb(0%,0%,100%);stroke-opacity:1;stroke-miterlimit:10;" d="M 89.386719 174.855469 L 84.605469 161.988281 "/>
<path style="fill:none;stroke-width:1.2;stroke-linecap:butt;stroke-linejoin:miter;stroke:rgb(0%,0%,0%);stroke-opacity:1;stroke-miterlimit:10;" d="M 84.605469 161.988281 L 79.824219 149.121094 "/>
<path style=" stroke:none;fill-rule:nonzero;fill:rgb(100%,100%,100%);fill-opacity:1;" d="M 81.386719 168.355469 L 98.386719 168.355469 L 98.386719 181.355469 L 81.386719 181.355469 Z M 81.386719 168.355469 "/>
<g style="fill:rgb(0%,0%,100%);fill-opacity:1;">
  <use xlink:href="#glyph0-2" x="81.386719" y="178.256836"/>
  <use xlink:href="#glyph0-3" x="89.370117" y="178.256836"/>
</g>
<path style="fill:none;stroke-width:1;stroke-linecap:butt;stroke-linejoin:miter;stroke:rgb(0%,0%,0%);stroke-opacity:1;stroke-miterlimit:10;" d="M 52.753906 144.535156 L 52.753906 144.535156 M 55.582031 145.542969 L 55.753906 144.511719 M 58.40625 146.546875 L 58.753906 144.492188 M 61.234375 147.554688 L 61.753906 144.472656 M 64.058594 148.5625 L 64.753906 144.453125 M 66.882812 149.570312 L 67.753906 144.429688 M 69.710938 150.578125 L 70.753906 144.410156 M 72.535156 151.585938 L 73.753906 144.390625 M 75.363281 152.59375 L 76.753906 144.371094 M 78.1875 153.601562 L 79.753906 144.347656 M 79.015625 153.894531 L 80.632812 144.34375 "/>
<path style="fill:none;stroke-width:1.2;stroke-linecap:butt;stroke-linejoin:miter;stroke:rgb(0%,0%,0%);stroke-opacity:1;stroke-miterlimit:10;" d="M 52.753906 144.535156 L 44.003906 155.109375 "/>
<path style="fill:none;stroke-width:1.2;stroke-linecap:butt;stroke-linejoin:miter;stroke:rgb(100%,0%,0%);stroke-opacity:1;stroke-miterlimit:10;" d="M 44.003906 155.109375 L 35.25 165.683594 "/>
<path style="fill:none;stroke-width:1.2;stroke-linecap:butt;stroke-linejoin:miter;stroke:rgb(0%,0%,0%);stroke-opacity:1;stroke-miterlimit:10;" d="M 52.753906 144.535156 L 43.195312 118.796875 "/>
<path style=" stroke:none;fill-rule:nonzero;fill:rgb(100%,100%,100%);fill-opacity:1;" d="M 18.25 159.183594 L 35.25 159.183594 L 35.25 172.183594 L 18.25 172.183594 Z M 18.25 159.183594 "/>
<g style="fill:rgb(100%,0%,0%);fill-opacity:1;">
  <use xlink:href="#glyph0-3" x="18.25" y="169.084961"/>
  <use xlink:href="#glyph0-4" x="26.274414" y="169.084961"/>
</g>
</g>
</svg>

<svg xmlns="http://www.w3.org/2000/svg" xmlns:xlink="http://www.w3.org/1999/xlink" width="300pt" height="300pt" viewBox="0 0 300 300"><defs><symbol overflow="visible"><path d="M.547 1.938V-7.75h5.5v9.688zm.625-.61h4.266v-8.47H1.171zm0 0"/></symbol><symbol overflow="visible" id="a"><path d="M1.078-8.016h4.61v.907H2.171v2.36h3.172v.922H2.172V0H1.078zm0 0"/></symbol><symbol overflow="visible" id="b"><path d="M1.078-8.016h1.47l3.546 6.704v-6.704h1.062V0H5.688L2.124-6.703V0H1.078zm0 0"/></symbol><symbol overflow="visible" id="c"><path d="M1.078-8.016h1.094v3.282H6.11v-3.282h1.077V0H6.11v-3.813H2.17V0H1.078zm0 0"/></symbol><symbol overflow="visible" id="d"><path d="M4.328-7.28c-.78 0-1.406.296-1.875.89-.46.585-.687 1.382-.687 2.39 0 1.012.226 1.813.687 2.406.47.586 1.094.875 1.875.875.79 0 1.414-.288 1.875-.874.457-.593.688-1.394.688-2.406 0-1.008-.23-1.805-.687-2.39-.46-.594-1.086-.89-1.875-.89zm0-.892c1.125 0 2.024.383 2.703 1.14C7.708-6.28 8.048-5.27 8.048-4c0 1.262-.34 2.273-1.016 3.03C6.353-.22 5.454.157 4.33.157S2.3-.22 1.625-.97c-.668-.75-1-1.757-1-3.03 0-1.27.332-2.28 1-3.03.676-.76 1.578-1.142 2.703-1.142zm0 0"/></symbol></defs><g><path fill="#fff" d="M0 0h300v300H0z"/><path d="M264.75 236.2l-7.352-11.595" stroke-width="1.2" stroke="#3cc" stroke-miterlimit="10" fill="none"/><path d="M257.398 224.605l-7.35-11.59" stroke-width="1.2" stroke="#000" stroke-miterlimit="10" fill="none"/><path d="M261.75 229.7h7v13h-7zm0 0" fill="#fff"/><use xlink:href="#a" x="261.75" y="239.601" fill="#3cc"/><path d="M250.047 213.016l-27.43 1.14M247.035 206.676l-21.945.91M262.773 188.688l-12.726 24.328M222.617 214.156l-14.707-23.183M207.91 190.973l12.727-24.328M214.906 191.535l10.184-19.46M220.637 166.645l27.43-1.14M220.637 166.645l-14.703-23.184M248.066 165.504l14.707 23.184M244.082 171.28l11.766 18.548M205.934 143.46l10.113-25.523M178.535 141.73l27.4 1.73M181.684 135.457l21.918 1.383M216.047 117.938l12.867-4.782" stroke-width="1.2" stroke="#000" stroke-miterlimit="10" fill="none"/><path d="M228.914 113.156l12.867-4.78" stroke-width="1.2" stroke="#00f" stroke-miterlimit="10" fill="none"/><path d="M216.37 110.926l10.294-3.824" stroke-width="1.2" stroke="#000" stroke-miterlimit="10" fill="none"/><path d="M226.664 107.102l10.297-3.825" stroke-width="1.2" stroke="#00f" stroke-miterlimit="10" fill="none"/><path d="M194.898 100.434l21.15 17.504" stroke-width="1.2" stroke="#000" stroke-miterlimit="10" fill="none"/><path d="M241.78 108.375l2.294-13.535" stroke-width="1.2" stroke="#00f" stroke-miterlimit="10" fill="none"/><path d="M244.074 94.84l2.293-13.53" stroke-width="1.2" stroke="#000" stroke-miterlimit="10" fill="none"/><path d="M237.78 101.875h8v13h-8zm0 0" fill="#fff"/><use xlink:href="#b" x="237.781" y="111.776" fill="#00f"/><path d="M246.367 81.31L225.22 63.8M240.137 84.53l-16.922-14.003M225.22 63.8l-25.736 9.563M199.484 73.363l-4.586 27.07M205.395 77.148l-3.668 21.657M194.898 100.434l-11.59 7.35" stroke-width="1.2" stroke="#000" stroke-miterlimit="10" fill="none"/><path d="M183.31 107.785l-11.595 7.352M171.715 115.137l3.41 13.297" stroke-width="1.2" stroke="#00f" stroke-miterlimit="10" fill="none"/><path d="M175.125 128.434l3.41 13.296" stroke-width="1.2" stroke="#000" stroke-miterlimit="10" fill="none"/><path d="M163.715 108.637h17v13h-17zm0 0" fill="#fff"/><g fill="#00f"><use xlink:href="#b" x="163.715" y="118.538"/><use xlink:href="#c" x="171.698" y="118.538"/></g><path d="M178.535 141.73l-17.508 21.15M161.027 162.88l-27.066-4.587M157.242 168.79l-21.652-3.67M170.59 188.613l-9.563-25.734M133.96 158.293l-17.507 21.148M116.453 179.44l4.78 12.87" stroke-width="1.2" stroke="#000" stroke-miterlimit="10" fill="none"/><path d="M121.234 192.31l4.782 12.866" stroke-width="1.2" stroke="#00f" stroke-miterlimit="10" fill="none"/><path d="M123.465 179.766l3.828 10.293" stroke-width="1.2" stroke="#000" stroke-miterlimit="10" fill="none"/><path d="M127.293 190.06l3.824 10.292" stroke-width="1.2" stroke="#00f" stroke-miterlimit="10" fill="none"/><path d="M116.453 179.44l-13.53-2.292" stroke-width="1.2" stroke="#000" stroke-miterlimit="10" fill="none"/><path d="M102.922 177.148l-13.535-2.293M126.016 205.176l13.535 2.293" stroke-width="1.2" stroke="#00f" stroke-miterlimit="10" fill="none"/><path d="M139.55 207.47l13.536 2.292" stroke-width="1.2" stroke="#000" stroke-miterlimit="10" fill="none"/><path d="M122.016 198.676h8v13h-8zm0 0" fill="#fff"/><use xlink:href="#b" x="122.016" y="208.577" fill="#00f"/><path d="M153.086 209.762l17.504-21.15M149.86 203.527l14.003-16.918" stroke-width="1.2" stroke="#000" stroke-miterlimit="10" fill="none"/><path d="M89.387 174.855l-4.782-12.867" stroke-width="1.2" stroke="#00f" stroke-miterlimit="10" fill="none"/><path d="M84.605 161.988l-4.78-12.867" stroke-width="1.2" stroke="#000" stroke-miterlimit="10" fill="none"/><path d="M81.387 168.355h17v13h-17zm0 0" fill="#fff"/><g fill="#00f"><use xlink:href="#b" x="81.387" y="178.257"/><use xlink:href="#c" x="89.37" y="178.257"/></g><path d="M52.754 144.535m2.828 1.008l.172-1.03m2.652 2.034l.348-2.055m2.48 3.063l.52-3.082m2.305 4.09l.694-4.11m2.13 5.117l.87-5.14m1.957 6.148l1.044-6.168m1.78 7.176l1.22-7.195m1.61 8.204l1.39-8.223m1.433 9.232l1.567-9.254m-.738 9.547l1.617-9.55" stroke="#000" stroke-miterlimit="10" fill="none"/><path d="M52.754 144.535l-8.75 10.574" stroke-width="1.2" stroke="#000" stroke-miterlimit="10" fill="none"/><path d="M44.004 155.11l-8.754 10.574" stroke-width="1.2" stroke="#f00" stroke-miterlimit="10" fill="none"/><path d="M52.754 144.535l-9.56-25.738" stroke-width="1.2" stroke="#000" stroke-miterlimit="10" fill="none"/><path d="M18.25 159.184h17v13h-17zm0 0" fill="#fff"/><g fill="#f00"><use xlink:href="#c" x="18.25" y="169.085"/><use xlink:href="#d" x="26.274" y="169.085"/></g></g></svg>
